net_optim/media/elements.svg

<svg xmlns="http://www.w3.org/2000/svg" xmlns:xlink="http://www.w3.org/1999/xlink" width="1039" height="275" version="1.1"><defs><clipPath id="VOThuBLfUUhL"><path fill="none" stroke="none" d="M 0 0 L 1039 0 L 1039 275 L 0 275 L 0 0 Z"/></clipPath></defs><g clip-path="url(#VOThuBLfUUhL)" transform="scale(1,1)"><g><rect width="1039" height="275" x="0" y="0" fill="#FFF" fill-opacity="1" stroke="none"/><path fill="#930" fill-opacity=".098" fill-rule="evenodd" stroke="none" d="M 651.0000000000002 48.00000000000034 L 501.0000000000002 98.00000000000031 L 601.0000000000002 198.00000000000028 Z" paint-order="stroke fill markers"/><path fill="#930" fill-opacity=".098" fill-rule="evenodd" stroke="none" d="M 901 48.00000000000034 L 801.0000000000001 198.00000000000028 L 1001 248.00000000000026 Z" paint-order="stroke fill markers"/><path fill="#930" fill-opacity=".098" fill-rule="evenodd" stroke="none" d="M 901 48.00000000000034 L 1001 248.00000000000026 L 978 129.0000000000003 Z" paint-order="stroke fill markers"/><path fill="none" stroke="#000" stroke-linecap="round" stroke-linejoin="round" stroke-miterlimit="10" stroke-opacity=".698" stroke-width="2.5" d="M 201.00000000000034 148.00000000000028 L 334.8723839331416 103.37587202228656" paint-order="fill stroke markers"/><path fill="#000" fill-opacity=".698" fill-rule="evenodd" stroke="none" d="M 351.0000000000003 98.00000000000031 L 336.21635193871316 107.40777603900123 L 333.52841592757 99.34396800557188 Z" paint-order="stroke fill markers"/><path fill="none" stroke="#000" stroke-linecap="round" stroke-linejoin="round" stroke-miterlimit="10" stroke-opacity=".698" stroke-width="2.5" d="M 901 48.00000000000034 L 810.429903335829 183.85514499625694" paint-order="fill stroke markers"/><path fill="#000" fill-opacity=".698" fill-rule="evenodd" stroke="none" d="M 801.0000000000001 198.00000000000028 L 806.8936895848931 181.49766916229973 L 813.9661170867648 186.21262083021415 Z" paint-order="stroke fill markers"/><path fill="none" stroke="#000" stroke-linecap="round" stroke-linejoin="round" stroke-miterlimit="10" stroke-opacity=".698" stroke-width="2.5" d="M 801.0000000000001 198.00000000000028 L 984.5075774975294 243.8768943743826" paint-order="fill stroke markers"/><path fill="#000" fill-opacity=".698" fill-rule="evenodd" stroke="none" d="M 1001 248.00000000000026 L 983.4768010911249 248.00000000000026 L 985.5383539039339 239.75378874876495 Z" paint-order="stroke fill markers"/><path fill="none" stroke="#000" stroke-linecap="round" stroke-linejoin="round" stroke-miterlimit="10" stroke-opacity=".698" stroke-width="2.5" d="M 1001 248.00000000000026 L 981.2260111158422 145.69110099066185" paint-order="fill stroke markers"/><path fill="#000" fill-opacity=".698" fill-rule="evenodd" stroke="none" d="M 978 129.0000000000003 L 985.3987863635076 144.8845982117013 L 977.0532358681768 146.4976037696224 Z" paint-order="stroke fill markers"/><path fill="none" stroke="#000" stroke-linecap="round" stroke-linejoin="round" stroke-miterlimit="10" stroke-opacity=".698" stroke-width="2.5" d="M 978 129.0000000000003 L 912.7127379627681 60.321191882912174" paint-order="fill stroke markers"/><path fill="#000" fill-opacity=".698" fill-rule="evenodd" stroke="none" d="M 901 48.00000000000034 L 915.7930359334961 57.39300739222016 L 909.6324399920401 63.249376373604186 Z" paint-order="stroke fill markers"/><path fill="none" stroke="#000" stroke-dasharray="10.5 8" stroke-linejoin="round" stroke-miterlimit="10" stroke-opacity=".698" stroke-width="2.5" d="M 978 129.0000000000003 L 816.8390360295109 191.82546053086898" paint-order="fill stroke markers"/><path fill="#000" fill-opacity=".698" fill-rule="evenodd" stroke="none" d="M 801.0000000000001 198.00000000000028 L 815.2954011622281 187.86570152349128 L 818.3826708967937 195.78521953824668 Z" paint-order="stroke fill markers"/><path fill="none" stroke="#000" stroke-linecap="round" stroke-linejoin="round" stroke-miterlimit="10" stroke-opacity=".698" stroke-width="2.5" d="M 901 48.00000000000034 L 993.3973688765008 232.79473775300173" paint-order="fill stroke markers"/><path fill="#000" fill-opacity=".698" fill-rule="evenodd" stroke="none" d="M 1001 248.00000000000028 L 989.5960533147511 234.69539553387654 L 997.1986844382504 230.89407997212692 Z" paint-order="stroke fill markers"/><path fill="none" stroke="#000" stroke-linecap="round" stroke-linejoin="round" stroke-miterlimit="10" stroke-opacity=".698" stroke-width="2.5" d="M 651.0000000000002 48.00000000000034 L 517.127616066859 92.62412797771407" paint-order="fill stroke markers"/><path fill="#000" fill-opacity=".698" fill-rule="evenodd" stroke="none" d="M 501.0000000000002 98.00000000000031 L 515.7836480612874 88.59222396099938 L 518.4715840724306 96.65603199442876 Z" paint-order="stroke fill markers"/><path fill="none" stroke="#000" stroke-linecap="round" stroke-linejoin="round" stroke-miterlimit="10" stroke-opacity=".698" stroke-width="2.5" d="M 501.0000000000002 98.00000000000031 L 588.9791847198289 185.97918471982896" paint-order="fill stroke markers"/><path fill="#000" fill-opacity=".698" fill-rule="evenodd" stroke="none" d="M 601.0000000000002 198.00000000000028 L 585.973980899786 188.9843885398718 L 591.9843885398718 182.97398089978614 Z" paint-order="stroke fill markers"/><path fill="none" stroke="#000" stroke-linecap="round" stroke-linejoin="round" stroke-miterlimit="10" stroke-opacity=".698" stroke-width="2.5" d="M 601.0000000000002 198.00000000000028 L 645.624127977714 64.12761606685908" paint-order="fill stroke markers"/><path fill="#000" fill-opacity=".698" fill-rule="evenodd" stroke="none" d="M 651.0000000000002 48.00000000000034 L 649.6560319944286 65.47158407243064 L 641.5922239609994 62.783648061287515 Z" paint-order="stroke fill markers"/><path fill="#4D4DFF" fill-opacity="1" stroke="none" d="M 56.0000000000004 148.00000000000028 C 56.0000000000004 150.76142374915426 53.76142374915436 153.00000000000028 51.0000000000004 153.00000000000028 C 48.23857625084643 153.00000000000028 46.0000000000004 150.76142374915426 46.0000000000004 148.00000000000028 C 46.0000000000004 145.2385762508463 48.23857625084643 143.00000000000028 51.0000000000004 143.00000000000028 C 53.76142374915436 143.00000000000028 56.0000000000004 145.2385762508463 56.0000000000004 148.00000000000028 Z" paint-order="stroke fill markers"/><path fill="none" stroke="#000" stroke-linecap="round" stroke-linejoin="round" stroke-miterlimit="10" stroke-opacity="1" d="M 56.0000000000004 148.00000000000028 C 56.0000000000004 150.76142374915426 53.76142374915436 153.00000000000028 51.0000000000004 153.00000000000028 C 48.23857625084643 153.00000000000028 46.0000000000004 150.76142374915426 46.0000000000004 148.00000000000028 C 46.0000000000004 145.2385762508463 48.23857625084643 143.00000000000028 51.0000000000004 143.00000000000028 C 53.76142374915436 143.00000000000028 56.0000000000004 145.2385762508463 56.0000000000004 148.00000000000028 Z" paint-order="fill stroke markers"/><path fill="#4D4DFF" fill-opacity="1" stroke="none" d="M 206.00000000000034 148.00000000000028 C 206.00000000000034 150.76142374915426 203.76142374915432 153.00000000000028 201.00000000000034 153.00000000000028 C 198.23857625084636 153.00000000000028 196.00000000000034 150.76142374915426 196.00000000000034 148.00000000000028 C 196.00000000000034 145.2385762508463 198.23857625084636 143.00000000000028 201.00000000000034 143.00000000000028 C 203.76142374915432 143.00000000000028 206.00000000000034 145.2385762508463 206.00000000000034 148.00000000000028 Z" paint-order="stroke fill markers"/><path fill="none" stroke="#000" stroke-linecap="round" stroke-linejoin="round" stroke-miterlimit="10" stroke-opacity="1" d="M 206.00000000000034 148.00000000000028 C 206.00000000000034 150.76142374915426 203.76142374915432 153.00000000000028 201.00000000000034 153.00000000000028 C 198.23857625084636 153.00000000000028 196.00000000000034 150.76142374915426 196.00000000000034 148.00000000000028 C 196.00000000000034 145.2385762508463 198.23857625084636 143.00000000000028 201.00000000000034 143.00000000000028 C 203.76142374915432 143.00000000000028 206.00000000000034 145.2385762508463 206.00000000000034 148.00000000000028 Z" paint-order="fill stroke markers"/><path fill="#4D4DFF" fill-opacity="1" stroke="none" d="M 356.0000000000003 98.00000000000031 C 356.0000000000003 100.76142374915428 353.76142374915423 103.00000000000031 351.0000000000003 103.00000000000031 C 348.23857625084634 103.00000000000031 346.0000000000003 100.76142374915428 346.0000000000003 98.00000000000031 C 346.0000000000003 95.23857625084635 348.23857625084634 93.00000000000031 351.0000000000003 93.00000000000031 C 353.76142374915423 93.00000000000031 356.0000000000003 95.23857625084635 356.0000000000003 98.00000000000031 Z" paint-order="stroke fill markers"/><path fill="none" stroke="#000" stroke-linecap="round" stroke-linejoin="round" stroke-miterlimit="10" stroke-opacity="1" d="M 356.0000000000003 98.00000000000031 C 356.0000000000003 100.76142374915428 353.76142374915423 103.00000000000031 351.0000000000003 103.00000000000031 C 348.23857625084634 103.00000000000031 346.0000000000003 100.76142374915428 346.0000000000003 98.00000000000031 C 346.0000000000003 95.23857625084635 348.23857625084634 93.00000000000031 351.0000000000003 93.00000000000031 C 353.76142374915423 93.00000000000031 356.0000000000003 95.23857625084635 356.0000000000003 98.00000000000031 Z" paint-order="fill stroke markers"/><path fill="#4D4DFF" fill-opacity="1" stroke="none" d="M 506.0000000000002 98.00000000000031 C 506.0000000000002 100.76142374915428 503.7614237491542 103.00000000000031 501.0000000000002 103.00000000000031 C 498.2385762508463 103.00000000000031 496.0000000000002 100.76142374915428 496.0000000000002 98.00000000000031 C 496.0000000000002 95.23857625084635 498.2385762508463 93.00000000000031 501.0000000000002 93.00000000000031 C 503.7614237491542 93.00000000000031 506.0000000000002 95.23857625084635 506.0000000000002 98.00000000000031 Z" paint-order="stroke fill markers"/><path fill="none" stroke="#000" stroke-linecap="round" stroke-linejoin="round" stroke-miterlimit="10" stroke-opacity="1" d="M 506.0000000000002 98.00000000000031 C 506.0000000000002 100.76142374915428 503.7614237491542 103.00000000000031 501.0000000000002 103.00000000000031 C 498.2385762508463 103.00000000000031 496.0000000000002 100.76142374915428 496.0000000000002 98.00000000000031 C 496.0000000000002 95.23857625084635 498.2385762508463 93.00000000000031 501.0000000000002 93.00000000000031 C 503.7614237491542 93.00000000000031 506.0000000000002 95.23857625084635 506.0000000000002 98.00000000000031 Z" paint-order="fill stroke markers"/><path fill="#4D4DFF" fill-opacity="1" stroke="none" d="M 606.0000000000002 198.00000000000028 C 606.0000000000002 200.76142374915426 603.7614237491542 203.00000000000028 601.0000000000002 203.00000000000028 C 598.2385762508462 203.00000000000028 596.0000000000002 200.76142374915426 596.0000000000002 198.00000000000028 C 596.0000000000002 195.2385762508463 598.2385762508462 193.00000000000028 601.0000000000002 193.00000000000028 C 603.7614237491542 193.00000000000028 606.0000000000002 195.2385762508463 606.0000000000002 198.00000000000028 Z" paint-order="stroke fill markers"/><path fill="none" stroke="#000" stroke-linecap="round" stroke-linejoin="round" stroke-miterlimit="10" stroke-opacity="1" d="M 606.0000000000002 198.00000000000028 C 606.0000000000002 200.76142374915426 603.7614237491542 203.00000000000028 601.0000000000002 203.00000000000028 C 598.2385762508462 203.00000000000028 596.0000000000002 200.76142374915426 596.0000000000002 198.00000000000028 C 596.0000000000002 195.2385762508463 598.2385762508462 193.00000000000028 601.0000000000002 193.00000000000028 C 603.7614237491542 193.00000000000028 606.0000000000002 195.2385762508463 606.0000000000002 198.00000000000028 Z" paint-order="fill stroke markers"/><path fill="#4D4DFF" fill-opacity="1" stroke="none" d="M 656.0000000000002 48.00000000000034 C 656.0000000000002 50.761423749154304 653.7614237491542 53.00000000000034 651.0000000000002 53.00000000000034 C 648.2385762508462 53.00000000000034 646.0000000000002 50.761423749154304 646.0000000000002 48.00000000000034 C 646.0000000000002 45.23857625084637 648.2385762508462 43.00000000000034 651.0000000000002 43.00000000000034 C 653.7614237491542 43.00000000000034 656.0000000000002 45.23857625084637 656.0000000000002 48.00000000000034 Z" paint-order="stroke fill markers"/><path fill="none" stroke="#000" stroke-linecap="round" stroke-linejoin="round" stroke-miterlimit="10" stroke-opacity="1" d="M 656.0000000000002 48.00000000000034 C 656.0000000000002 50.761423749154304 653.7614237491542 53.00000000000034 651.0000000000002 53.00000000000034 C 648.2385762508462 53.00000000000034 646.0000000000002 50.761423749154304 646.0000000000002 48.00000000000034 C 646.0000000000002 45.23857625084637 648.2385762508462 43.00000000000034 651.0000000000002 43.00000000000034 C 653.7614237491542 43.00000000000034 656.0000000000002 45.23857625084637 656.0000000000002 48.00000000000034 Z" paint-order="fill stroke markers"/><path fill="#4D4DFF" fill-opacity="1" stroke="none" d="M 906 48.00000000000034 C 906 50.761423749154304 903.761423749154 53.00000000000034 901 53.00000000000034 C 898.238576250846 53.00000000000034 896 50.761423749154304 896 48.00000000000034 C 896 45.23857625084637 898.238576250846 43.00000000000034 901 43.00000000000034 C 903.761423749154 43.00000000000034 906 45.23857625084637 906 48.00000000000034 Z" paint-order="stroke fill markers"/><path fill="none" stroke="#000" stroke-linecap="round" stroke-linejoin="round" stroke-miterlimit="10" stroke-opacity="1" d="M 906 48.00000000000034 C 906 50.761423749154304 903.761423749154 53.00000000000034 901 53.00000000000034 C 898.238576250846 53.00000000000034 896 50.761423749154304 896 48.00000000000034 C 896 45.23857625084637 898.238576250846 43.00000000000034 901 43.00000000000034 C 903.761423749154 43.00000000000034 906 45.23857625084637 906 48.00000000000034 Z" paint-order="fill stroke markers"/><path fill="#4D4DFF" fill-opacity="1" stroke="none" d="M 806.0000000000001 198.00000000000028 C 806.0000000000001 200.76142374915426 803.7614237491541 203.00000000000028 801.0000000000001 203.00000000000028 C 798.2385762508461 203.00000000000028 796.0000000000001 200.76142374915426 796.0000000000001 198.00000000000028 C 796.0000000000001 195.2385762508463 798.2385762508461 193.00000000000028 801.0000000000001 193.00000000000028 C 803.7614237491541 193.00000000000028 806.0000000000001 195.2385762508463 806.0000000000001 198.00000000000028 Z" paint-order="stroke fill markers"/><path fill="none" stroke="#000" stroke-linecap="round" stroke-linejoin="round" stroke-miterlimit="10" stroke-opacity="1" d="M 806.0000000000001 198.00000000000028 C 806.0000000000001 200.76142374915426 803.7614237491541 203.00000000000028 801.0000000000001 203.00000000000028 C 798.2385762508461 203.00000000000028 796.0000000000001 200.76142374915426 796.0000000000001 198.00000000000028 C 796.0000000000001 195.2385762508463 798.2385762508461 193.00000000000028 801.0000000000001 193.00000000000028 C 803.7614237491541 193.00000000000028 806.0000000000001 195.2385762508463 806.0000000000001 198.00000000000028 Z" paint-order="fill stroke markers"/><path fill="#4D4DFF" fill-opacity="1" stroke="none" d="M 1006 248.00000000000026 C 1006 250.76142374915423 1003.761423749154 253.00000000000026 1001 253.00000000000026 C 998.238576250846 253.00000000000026 996 250.76142374915423 996 248.00000000000026 C 996 245.23857625084628 998.238576250846 243.00000000000026 1001 243.00000000000026 C 1003.761423749154 243.00000000000026 1006 245.23857625084628 1006 248.00000000000026 Z" paint-order="stroke fill markers"/><path fill="none" stroke="#000" stroke-linecap="round" stroke-linejoin="round" stroke-miterlimit="10" stroke-opacity="1" d="M 1006 248.00000000000026 C 1006 250.76142374915423 1003.761423749154 253.00000000000026 1001 253.00000000000026 C 998.238576250846 253.00000000000026 996 250.76142374915423 996 248.00000000000026 C 996 245.23857625084628 998.238576250846 243.00000000000026 1001 243.00000000000026 C 1003.761423749154 243.00000000000026 1006 245.23857625084628 1006 248.00000000000026 Z" paint-order="fill stroke markers"/><path fill="#4D4DFF" fill-opacity="1" stroke="none" d="M 983 129.0000000000003 C 983 131.7614237491543 980.761423749154 134.0000000000003 978 134.0000000000003 C 975.238576250846 134.0000000000003 973 131.7614237491543 973 129.0000000000003 C 973 126.23857625084635 975.238576250846 124.00000000000031 978 124.00000000000031 C 980.761423749154 124.00000000000031 983 126.23857625084635 983 129.0000000000003 Z" paint-order="stroke fill markers"/><path fill="none" stroke="#000" stroke-linecap="round" stroke-linejoin="round" stroke-miterlimit="10" stroke-opacity="1" d="M 983 129.0000000000003 C 983 131.7614237491543 980.761423749154 134.0000000000003 978 134.0000000000003 C 975.238576250846 134.0000000000003 973 131.7614237491543 973 129.0000000000003 C 973 126.23857625084635 975.238576250846 124.00000000000031 978 124.00000000000031 C 980.761423749154 124.00000000000031 983 126.23857625084635 983 129.0000000000003 Z" paint-order="fill stroke markers"/></g></g></svg>

<svg xmlns="http://www.w3.org/2000/svg" width="1039" height="275"><defs><clipPath id="a"><path fill="none" d="M0 0h1039v275H0V0Z"/></clipPath></defs><g clip-path="url(#a)"><path fill="#FFF" d="M0 0h1039v275H0z"/><path fill="#930" fill-opacity=".098" fill-rule="evenodd" d="M651 48 501 98l100 100Zm250 0L801 198l200 50Z" paint-order="stroke fill markers"/><path fill="#930" fill-opacity=".098" fill-rule="evenodd" d="m901 48 100 200-23-119Z" paint-order="stroke fill markers"/><path fill="none" stroke="#000" stroke-linecap="round" stroke-linejoin="round" stroke-miterlimit="10" stroke-opacity=".698" stroke-width="2.5" d="m201 148 133.872-44.624" paint-order="fill stroke markers"/><path fill-opacity=".698" fill-rule="evenodd" d="m351 98-14.784 9.408-2.688-8.064Z" paint-order="stroke fill markers"/><path fill="none" stroke="#000" stroke-linecap="round" stroke-linejoin="round" stroke-miterlimit="10" stroke-opacity=".698" stroke-width="2.5" d="m901 48-90.57 135.855" paint-order="fill stroke markers"/><path fill-opacity=".698" fill-rule="evenodd" d="m801 198 5.894-16.502 7.072 4.715Z" paint-order="stroke fill markers"/><path fill="none" stroke="#000" stroke-linecap="round" stroke-linejoin="round" stroke-miterlimit="10" stroke-opacity=".698" stroke-width="2.5" d="m801 198 183.508 45.877" paint-order="fill stroke markers"/><path fill-opacity=".698" fill-rule="evenodd" d="M1001 248h-17.523l2.061-8.246Z" paint-order="stroke fill markers"/><path fill="none" stroke="#000" stroke-linecap="round" stroke-linejoin="round" stroke-miterlimit="10" stroke-opacity=".698" stroke-width="2.5" d="m1001 248-19.774-102.309" paint-order="fill stroke markers"/><path fill-opacity=".698" fill-rule="evenodd" d="m978 129 7.399 15.885-8.346 1.613Z" paint-order="stroke fill markers"/><path fill="none" stroke="#000" stroke-linecap="round" stroke-linejoin="round" stroke-miterlimit="10" stroke-opacity=".698" stroke-width="2.5" d="m978 129-65.287-68.679" paint-order="fill stroke markers"/><path fill-opacity=".698" fill-rule="evenodd" d="m901 48 14.793 9.393-6.16 5.856Z" paint-order="stroke fill markers"/><path fill="none" stroke="#000" stroke-dasharray="10.5 8" stroke-linejoin="round" stroke-miterlimit="10" stroke-opacity=".698" stroke-width="2.5" d="m978 129-161.161 62.825" paint-order="fill stroke markers"/><path fill-opacity=".698" fill-rule="evenodd" d="m801 198 14.295-10.134 3.088 7.92Z" paint-order="stroke fill markers"/><path fill="none" stroke="#000" stroke-linecap="round" stroke-linejoin="round" stroke-miterlimit="10" stroke-opacity=".698" stroke-width="2.5" d="m901 48 92.397 184.795" paint-order="fill stroke markers"/><path fill-opacity=".698" fill-rule="evenodd" d="m1001 248-11.404-13.305 7.603-3.8Z" paint-order="stroke fill markers"/><path fill="none" stroke="#000" stroke-linecap="round" stroke-linejoin="round" stroke-miterlimit="10" stroke-opacity=".698" stroke-width="2.5" d="M651 48 517.128 92.624" paint-order="fill stroke markers"/><path fill-opacity=".698" fill-rule="evenodd" d="m501 98 14.784-9.408 2.688 8.064Z" paint-order="stroke fill markers"/><path fill="none" stroke="#000" stroke-linecap="round" stroke-linejoin="round" stroke-miterlimit="10" stroke-opacity=".698" stroke-width="2.5" d="m501 98 87.98 87.98" paint-order="fill stroke markers"/><path fill-opacity=".698" fill-rule="evenodd" d="m601 198-15.026-9.016 6.01-6.01Z" paint-order="stroke fill markers"/><path fill="none" stroke="#000" stroke-linecap="round" stroke-linejoin="round" stroke-miterlimit="10" stroke-opacity=".698" stroke-width="2.5" d="m601 198 44.624-133.872" paint-order="fill stroke markers"/><path fill-opacity=".698" fill-rule="evenodd" d="m651 48-1.344 17.472-8.064-2.688Z" paint-order="stroke fill markers"/><path fill="#4D4DFF" d="M56 148a5 5 0 1 1-10 0 5 5 0 0 1 10 0Z" paint-order="stroke fill markers"/><path fill="none" stroke="#000" stroke-linecap="round" stroke-linejoin="round" stroke-miterlimit="10" d="M56 148a5 5 0 1 1-10 0 5 5 0 0 1 10 0Z" paint-order="fill stroke markers"/><path fill="#4D4DFF" d="M206 148a5 5 0 1 1-10 0 5 5 0 0 1 10 0Z" paint-order="stroke fill markers"/><path fill="none" stroke="#000" stroke-linecap="round" stroke-linejoin="round" stroke-miterlimit="10" d="M206 148a5 5 0 1 1-10 0 5 5 0 0 1 10 0Z" paint-order="fill stroke markers"/><path fill="#4D4DFF" d="M356 98a5 5 0 1 1-10 0 5 5 0 0 1 10 0Z" paint-order="stroke fill markers"/><path fill="none" stroke="#000" stroke-linecap="round" stroke-linejoin="round" stroke-miterlimit="10" d="M356 98a5 5 0 1 1-10 0 5 5 0 0 1 10 0Z" paint-order="fill stroke markers"/><path fill="#4D4DFF" d="M506 98a5 5 0 1 1-10 0 5 5 0 0 1 10 0Z" paint-order="stroke fill markers"/><path fill="none" stroke="#000" stroke-linecap="round" stroke-linejoin="round" stroke-miterlimit="10" d="M506 98a5 5 0 1 1-10 0 5 5 0 0 1 10 0Z" paint-order="fill stroke markers"/><path fill="#4D4DFF" d="M606 198a5 5 0 1 1-10 0 5 5 0 0 1 10 0Z" paint-order="stroke fill markers"/><path fill="none" stroke="#000" stroke-linecap="round" stroke-linejoin="round" stroke-miterlimit="10" d="M606 198a5 5 0 1 1-10 0 5 5 0 0 1 10 0Z" paint-order="fill stroke markers"/><path fill="#4D4DFF" d="M656 48a5 5 0 1 1-10 0 5 5 0 0 1 10 0Z" paint-order="stroke fill markers"/><path fill="none" stroke="#000" stroke-linecap="round" stroke-linejoin="round" stroke-miterlimit="10" d="M656 48a5 5 0 1 1-10 0 5 5 0 0 1 10 0Z" paint-order="fill stroke markers"/><path fill="#4D4DFF" d="M906 48a5 5 0 1 1-10 0 5 5 0 0 1 10 0Z" paint-order="stroke fill markers"/><path fill="none" stroke="#000" stroke-linecap="round" stroke-linejoin="round" stroke-miterlimit="10" d="M906 48a5 5 0 1 1-10 0 5 5 0 0 1 10 0Z" paint-order="fill stroke markers"/><path fill="#4D4DFF" d="M806 198a5 5 0 1 1-10 0 5 5 0 0 1 10 0Z" paint-order="stroke fill markers"/><path fill="none" stroke="#000" stroke-linecap="round" stroke-linejoin="round" stroke-miterlimit="10" d="M806 198a5 5 0 1 1-10 0 5 5 0 0 1 10 0Z" paint-order="fill stroke markers"/><path fill="#4D4DFF" d="M1006 248a5 5 0 1 1-10 0 5 5 0 0 1 10 0Z" paint-order="stroke fill markers"/><path fill="none" stroke="#000" stroke-linecap="round" stroke-linejoin="round" stroke-miterlimit="10" d="M1006 248a5 5 0 1 1-10 0 5 5 0 0 1 10 0Z" paint-order="fill stroke markers"/><path fill="#4D4DFF" d="M983 129a5 5 0 1 1-10 0 5 5 0 0 1 10 0Z" paint-order="stroke fill markers"/><path fill="none" stroke="#000" stroke-linecap="round" stroke-linejoin="round" stroke-miterlimit="10" d="M983 129a5 5 0 1 1-10 0 5 5 0 0 1 10 0Z" paint-order="fill stroke markers"/></g></svg>
